setcps (120/60/4)

d1 $ slow "0.5 <1 2> 3"
   $ n "{0 2 [3 5] [4 <7 6 5>], 0*2 3*3 0*8}"
   # sound "cpu"
   # squiz ("<5 1 2 3>")
   # speed "1 [1 3] 0.75"
   # gain 0.75

d1 $ sound "bd*32"
   # speed (range 1 2 square)
   # squiz (range 1 5 rand)
   # lpf (slow 4 $ range 200 5000 $ sine)
   # lpq (slow 4 $ range 0.1 0.7 $ sine)
   # enhance (slow 4 $ range 0.05 0.2 isaw)


hush
