setcps (160/60/4)

d1 $ slow "0.5 <1 2> 3"
   $ n "{0 2 [3 5] [4 <7 [6*2] 5?>], 0*2 3*3 0*8}"
   # sound "cpu"
   # squiz "<5 1 2 3>"
   # speed "1 [1 3] <0.75 5>"
   # shape (slow 2 $ range 0.25 0.75 sine)
   # delay 0.2
   # delaytime (range 0.1 0.75 rand)
   # delayfeedback (slow 16 $ range 0.2 0.99 perlin)
   # gain 0.5

d2 $ slow "1 3 <0.25 5>"
   $ s "{bd*4, hh*5}"
   # gain 0.75

hush
