setcps(150/60/4)

d1
  $ sometimesBy 0.1 (ply 4)
  $ splice 16 "<[5 4 1 3] [1 2 3 4]>" 
  -- $ splice 16 "<[1 3 4 5 6 1 2 4] [6 1 7 4]>"
  $ hurry 0.25
  $ s  "clubcode1:4"

d2
  $ s "<808bd:1(3, 8) [808bd:1 808bd:1 ~ 808bd:1 ~ ~ ~ 808bd:1]>"

d3
  $ splice 16 "<2 3 4 5>*8"
  $ hurry 0.5
  $ s "clubcode1:9"

